X:1
T:Wanderers Nachtlied
T:Franz Lachner (1803 - 1890) Op. 128, nr.2
T:Wanderers Nachtlied
T:Über allen Gipfeln ist Ruh', in allen Wipfeln spürest du kaum einen Hauch; die Vöglein schweigen im Walde, warte nur, balde ruhest du auch.
T:Johann Wolfgang von Goethe (1749 - 1832)
C:Franz Lachner (1803 - 1890)
C:Op. 128
%%score [ 1 2 [ 3 4 ] ]
L:1/8
Q:1/4=120
M:4/4
K:B
V:1 treble-8 nm="Tenor 1" snm="T 1"
V:2 treble-8 nm="Tenor 2" snm="T 2"
V:3 bass nm="Bass 1" snm="B 1"
V:4 bass nm="Bass 2" snm="B 2"
V:1
!pp! F3 F!<(! ^^F2 G2!<)! |!>(! A4!>)! B2 z2 | z4 z2 c2 | d4 z2!p! d2 | d6 G2 | d4 c4 | %6
w: Ü- ber al- len|Gi- pfeln|ist|Ruh', in|al- len|Wi- pfeln|
!pp! c4 ^B4 |!<(! !courtesy!=B2 B2 B2!<)! B2 |!>(! (B4!>)! A2)!p! A2 | G6!<(! d2!<)! | (d3 G) G4 | %11
w: spü- rest|du kaum ei- nen|Hauch, _ in|al- len|Wi- * pfeln|
!mf! (G2 f2 d2)!>(! ^B2!>)! | c4 c2 c2 | c4 z2!pp! c2 | (c2 d2 e2) (dc) | ^^c4 d2 z2 | %16
w: spü- * rest du|kaum ei- nen|Hauch; die|Vög- * * lein _|schwei- gen,|
"^cresc." (!courtesy!^c2 d2 e2) dc |!>(! ^^c4!>)! d2 z2 |!pp! d3 ^^c c2 z2 | =d3 c c2 z2 | %20
w: schwei- * * gen im|Wal- de,|war- te nur,|war- te nur,|
 c2!<(! c2 c2 !courtesy!^d!<)!e |!>(! d4!>)! d4- |!>(! d4 G2!>(! (e2-!>)!!>)! | e2 d2) c4 | %24
w: bal- de ru- hest du|auch, bal-|* de, bal-|* * de|
!p! B4 A2 c2 | B2 z2 z4 |!pp!!<(! f3 f ^e2!<)! e2 |!>(! !courtesy!=e4!>)! d2!pp! d2 | d8- | %29
w: ru- hest du|auch.|Ü- ber al- len|Wi- pfeln ist|Ruh',|
 d2 z2 (d4- | d4 c2) B2 | e4 d2 c2 | B4 z4 | c8 | B4 z4 | c4"^rit." c2 d2 | !fermata!B8 |] %37
w: _ bal-|* * de|ru- hest du|auch,|bal-|de|ru- hest du|auch.|
V:2
!pp! D3 D!<(! D2!<)! D2 |!>(! D4!>)! D2 D2 | B4 z2 A2 | B4 z2!p! F2 | G4 G4 | A4 A4 |!pp! G4 G4 | %7
w: Ü- ber al- len|Gi- pfeln ist|Ruh', ist|Ruh', in|al- len|Wi- pfeln|spü- rest|
!<(! G2 G2 G2!<)! G2 |!>(! F4-!>)! F2 z2 |!p! z2 G2 G2!<(! G2!<)! | G4 G4 |!mf! G6!>(! ^^G2!>)! | %12
w: du kaum ei- nen|Hauch, _|in al- len|Wi- pfeln|spü- rest|
 A2 A2 B2 (AG) | A4 z2!pp! F2 | F6 F2 | F4 F2 z2 |"^cresc." =G4 F2 F2 |!>(! F4!>)! F2 z2 | %18
w: du kaum ei- nen _|Hauch, die|Vög- lein|schwei- gen,|schwei- gen im|Wal- de,|
!pp! F3 ^E E2 z2 | =F3 E E2 z2 | E2!<(! E2 E2 F!<)!=G |!>(! F4!>)! z4 | =A4 G2 z2 | =A4 G4 | %24
w: war- te nur,|war- te nur,|bal- de ru- hest du|auch,|bal- de,|bal- de|
!p! =G4 F2 F2 | F2 z2 z4 |!pp!!<(! d3 d =d2!<)! d2 |!>(! !courtesy!^c4!>)! B2!pp! B2 | A8- | %29
w: ru- hest du|auch.|Ü- ber al- len|Wi- pfeln ist|Ruh',|
 A2 z2 z4 | (B4 A2) B2 | G4 A2 A2 | B4 z4 | (=G4 F4) | F4 z4 | F4 F2 F2 | !fermata!F8 |] %37
w: _|bal- * de|ru- hest du|auch,|bal- *|de|ru- hest du|auch.|
V:3
!pp! D,3 D,!<(! C,2 B,,2!<)! |!>(! C,4!>)! B,,2 B,,2 | G,4 z2 E,2 | D,4 z2!p! D,2 | ^E,4 E,4 | %5
w: Ü- ber al- len|Gi- pfeln ist|Ruh', ist|Ruh', in|al- len|
 F,4 F,4 |!pp! F,4 F,4 |!<(! F,2 F,2 ^E,2!<)! E,2 |!>(! F,4-!>)! F,2!p! F,2 | F,6!<(! F,2!<)! | %10
w: Wi- pfeln|spü- rest|du kaum ei- nen|Hauch, _ in|al- len|
 F,4 F,4 |!mf! F,6!>(! F,2!>)! | ^^F,2 F,2 G,2 (^F,^E,) | F,4 z2!pp! C,2 | C,2 D,2 E,2 (D,C,) | %15
w: Wi- pfeln|spü- rest|du kaum ei- nen _|Hauch; die|Vög- * * lein _|
 ^^C,4 D,2 z2 |"^cresc." !courtesy!^C,2 D,2 E,2 D,C, |!>(! ^^C,4!>)! D,2 z2 |!pp! D,3 ^^C, C,2 z2 | %19
w: schwei- gen,|schwei- * * gen im|Wal- de,|war- te nur,|
 =D,3 C, C,2 z2 | C,2!<(! C,2 C,2 C,!<)!C, |!>(! D,4!>)! z4 | F,4 E,2 z2 | F,4 E,4 | %24
w: war- te nur,|bal- de ru- hest du|auch,|bal- de,|bal- de|
!p! E,4 C,2 E,2 | D,2 z2 z4 |!pp! F,3!<(! F, ^^F,2!<)! G,2 |!>(! A,4!>)! B,2!pp! D,2 | D,8- | %29
w: ru- hest du|auch.|Ü- ber al- len|Wi- pfeln ist|Ruh',|
 D,2 z2 z4 | (D,2 F,2 E,2) D,2 | (C,2 G,2) F,2 E,2 | D,4 z4 | E,8 | D,4 z4 | E,4 E,2 F,2 | %36
w: _|bal- * * de|ru- * hest du|auch,|bal-|de|ru- hest du|
 !fermata!D,8 |] %37
w: auch.|
V:4
!pp! B,,3 B,,!<(! A,,2 G,,2!<)! |!>(! ^^F,,4!>)! G,,2 z2 | z4 z2 !courtesy!^F,,2 | %3
w: Ü- ber al- len|Gi- pfeln|ist|
 B,,4 z2!p! B,,2 | B,,4 B,,4 | A,,4 A,,4 |!pp! D,4 D,4 |!<(! D,2 D,2 ^^C,2!<)! C,2 | %8
w: Ruh', in|al- len|Wi- pfeln|spü- rest|du kaum ei- nen|
!>(! D,4-!>)! D,2 z2 |!p! z2 B,,2 D,2!<(! C,2!<)! | (C,2 B,,2) B,,4 |!mf! ^B,,6!>(! D,2!>)! | %12
w: Hauch, _|in al- len|Wi- * pfeln|spü- rest|
 C,2 C,2 C,2 C,2 | F,,4 z2!pp! A,,2 | A,,6 A,,2 | A,,4 B,,2 z2 |"^cresc." A,,4 A,,2 A,,2 | %17
w: du kaum ei- nen|Hauch; die|Vög- lein|schwei- gen,|schwei- gen im|
!>(! A,,4!>)! B,,2 z2 |!pp! A,,3 A,, A,,2 z2 | =A,,3 A,, A,,2 z2 | %20
w: Wal- de,|war- te nur,|war- te nur,|
 =A,,2!<(! A,,2 ^A,,2 A,,!<)!A,, |!>(! B,,4!>)! z4 | ^B,,4 C,2 z2 | ^B,,4 C,4 |!p! C,4 F,,2 F,,2 | %25
w: bal- de ru- hest du|auch,|bal- de,|bal- de|ru- hest du|
 B,,2 B,,4 B,,2 |!pp!!<(! B,,6!<)! B,,2 |!>(! F,,4!>)! B,,2!pp! G,,2 | ^^F,,8- | F,,2 z2 z4 | %30
w: auch. Ü- ber|al- len|Wi- pfeln ist|Ruh',|_|
 !courtesy!^F,,4 F,,4 | F,,4 F,,2 F,,2 | B,,2 z2 (B,,4- | B,,4 A,,2 F,,2) | B,,2 z2 (B,,4- | %35
w: bal- de|ru- hest du|auch, bal-||de ru-|
 B,,2 A,,2) G,,2 A,,2 | !fermata!B,,8 |] %37
w: * * hest du|auch.|

